static/img/svg/list-bullet.svg

<svg xmlns="http://www.w3.org/2000/svg" width="24" height="24" viewBox="0 0 24 24"><path d="M8 6h12v2H8zM8 11h12v2H8zM8 16h12v2H8zM4 6h2v2H4zM4 11h2v2H4zM4 16h2v2H4z"/></svg>

<svg xmlns="http://www.w3.org/2000/svg" width="24" height="24" viewBox="0 0 24 24"><path d="M8 6H20V8H8zM8 11H20V13H8zM8 16H20V18H8zM4 6H6V8H4zM4 11H6V13H4zM4 16H6V18H4z"/></svg>
